X: 04037
T: JACK'S WALTZ
C: Bob McQuillen 10 Aug 1979
B: Bob's Note Book 04 #37
R: waltz
Z: 2020 John Chambers <jc:trillian.mit.edu>
M: 3/4
L: 1/4
K: G
D \
| G>AG | FGA | B>AB | G2A/B/ | cd>e | dBG | EA>G | FED |
| G>AG | FGA | B>AB | GAB | cd>e | dBG | AB>A | G2 ||
|| B/d/ \
| g>ag | fed | e>fg | d2B | cd>e | dBG | c>de | A2d |
| g>ag | fed | e>fg | dBG | cd>e | dBG | G/B/A>G | G2 |]
%%begintext align
%% I've played an awful lot of dances
%% for our local caller, Jack Perron.
%% We have had some wonderful night
%% with the music.
%%endtext

%%sep 1 1 500

%%sep 1 1 500

